X: 17867
T: Horse Keane's
R: hornpipe
M: 4/4
K: Gmajor
dc|:BdAd GA B/^c/d|eE ED EG FE|DEGA BDdB|BAAG ADAc|
BdAd GA B/^c/d|eE ED EG G/F/E|DEGB ADFA|1 G2GF Gddc:|2 G2GF GA Bd||
e2 c/e/f gage|dbgd Bd G/A/B|cCGc dBGA|BAAB cDAc|
BdAd GA B/^c/d|eE ED EG G/F/E|DEGB ADFA|1 G2GF GA B/c/d:|2 G2GF G4||

